app/assets/images/heroicon/outline/arrow-path.svg

<svg width="24" height="24" viewBox="0 0 24 24" fill="none" xmlns="http://www.w3.org/2000/svg">
<path d="M4.5 12C4.5 10.7681 4.54641 9.54699 4.63757 8.3384C4.78724 6.35425 6.35425 4.78724 8.3384 4.63757C9.54699 4.54641 10.7681 4.5 12 4.5C13.2319 4.5 14.453 4.54641 15.6616 4.63757C17.6458 4.78724 19.2128 6.35425 19.3624 8.3384C19.379 8.55852 19.3942 8.77906 19.4078 9M4.5 12L1.5 9M4.5 12L7.5 9M19.5 12C19.5 13.2319 19.4536 14.453 19.3624 15.6616C19.2128 17.6458 17.6458 19.2128 15.6616 19.3624C14.453 19.4536 13.2319 19.5 12 19.5C10.7681 19.5 9.54699 19.4536 8.3384 19.3624C6.35425 19.2128 4.78724 17.6458 4.63757 15.6616C4.62097 15.4415 4.60585 15.2209 4.59223 15M19.5 12L16.5 15M19.5 12L22.5 15" stroke="#0F172A" stroke-width="1.5" stroke-linecap="round" stroke-linejoin="round"/>
</svg>

<svg xmlns="http://www.w3.org/2000/svg" fill="none" viewBox="0 0 24 24" stroke-width="1.5" stroke="currentColor" aria-hidden="true">
  <path stroke-linecap="round" stroke-linejoin="round" d="M4.5 12c0-1.232.046-2.453.138-3.662a4.006 4.006 0 013.7-3.7 48.678 48.678 0 017.324 0 4.006 4.006 0 013.7 3.7c.017.22.032.441.046.662M4.5 12l-3-3m3 3l3-3m12 3c0 1.232-.046 2.453-.138 3.662a4.006 4.006 0 01-3.7 3.7 48.657 48.657 0 01-7.324 0 4.006 4.006 0 01-3.7-3.7c-.017-.22-.032-.441-.046-.662M19.5 12l-3 3m3-3l3 3"/>
</svg>
